<?xml version="1.0" encoding="UTF-8"?>
<map version="1.10" tiledversion="1.11.0" orientation="orthogonal" renderorder="right-down" width="100" height="60" tilewidth="32" tileheight="32" infinite="0" nextlayerid="3" nextobjectid="1">
 <tileset firstgid="1" source="Backyard - Act 1 Tile.tsx"/>
 <tileset firstgid="2177" source="City Act 1 - Tile map.tsx"/>
 <tileset firstgid="9831" source="Suspect House - Act 1 - Tiles.tsx"/>
 <tileset firstgid="14020" source="Tile Map - Entrance Apartment Act 1.tsx"/>
 <tileset firstgid="14410" source="blanc_horizon.tsx"/>
 <layer id="1" name="Calque de Tuiles 1" width="100" height="60">
  <data encoding="csv">
0,0,0,0,0,0,0,0,0,0,0,0,0,0,0,0,0,0,0,0,0,0,0,0,0,0,0,0,0,0,0,5471,5472,5471,5472,5471,5472,5471,5472,5471,5472,5471,5472,5471,5472,5471,5472,5471,5472,5471,5472,5471,5472,5471,5472,5471,5472,5471,5472,5471,5472,5471,5472,5471,5472,5471,5472,5471,5472,5471,5472,5471,5472,5471,0,0,0,0,0,0,0,0,0,0,0,0,0,0,0,0,0,0,0,0,0,0,0,0,0,0,
0,0,0,0,0,0,0,0,0,0,0,0,0,0,0,0,0,0,0,0,0,0,0,0,0,0,0,0,0,0,0,5560,5561,5560,5561,5560,5561,5560,5561,5560,5561,5560,5561,5560,5561,5560,5561,5560,5561,5560,5561,5560,5561,5560,5561,5560,5561,5560,5561,5560,5561,5560,5561,5560,5561,5560,5561,5560,5561,5560,5561,5560,5561,5560,0,0,0,0,0,0,0,0,0,0,0,0,0,0,0,0,0,0,0,0,0,0,0,0,0,0,
0,0,0,0,0,0,0,0,0,0,0,0,0,0,0,0,0,0,0,0,0,0,0,0,0,0,0,0,0,0,0,5382,5383,5382,5383,5382,5383,5382,5383,5382,5383,5382,5383,5382,5383,5382,5383,5382,5383,5382,5383,5382,5383,5382,5383,5382,5383,5382,5383,5382,5383,5382,5383,5382,5383,5382,5383,5382,5383,5382,5383,5382,5383,5382,0,0,0,0,0,0,0,0,0,0,0,0,0,0,0,0,0,0,0,0,0,0,0,0,0,0,
0,0,0,0,0,0,0,0,0,0,0,0,0,0,0,0,0,0,0,0,0,0,0,0,0,0,0,0,0,0,0,5471,5472,5471,5472,5471,5472,5471,5472,5471,5472,5471,5472,5471,5472,5471,5472,5471,5472,5471,5472,5471,5472,5471,5472,5471,5472,5471,5472,5471,0,0,0,0,0,0,0,0,0,0,0,0,0,0,0,0,0,0,0,0,0,0,0,0,0,0,0,0,0,0,0,0,0,0,0,0,0,0,0,0,
0,0,0,0,0,0,0,0,0,0,0,0,0,0,0,0,0,0,0,0,0,0,0,0,0,0,0,0,0,0,0,5560,5561,5560,5561,5560,5561,5560,5561,5560,5561,5560,5561,5560,5561,5560,5561,5560,5561,5560,5561,5560,5561,5560,5561,5560,5561,5560,5561,5560,0,0,0,0,0,0,0,0,0,0,0,0,0,0,0,0,0,0,0,0,0,0,0,0,0,0,0,0,0,0,0,0,0,0,0,0,0,0,0,0,
0,0,0,0,0,0,0,0,0,0,0,0,0,0,0,0,0,0,0,0,0,0,0,0,0,0,0,0,0,0,0,5382,5383,5382,5383,5382,5383,5382,5383,5382,5383,5382,5383,5382,5383,5382,5383,5382,5383,5382,5383,5382,5383,5382,5383,5382,5383,5382,5383,5382,0,0,0,0,0,0,0,0,0,0,0,0,0,0,0,0,0,0,0,0,0,0,0,0,0,0,0,0,0,0,0,0,0,0,0,0,0,0,0,0,
0,0,0,0,0,0,0,0,0,0,0,0,0,0,0,0,0,0,0,0,0,0,0,0,0,0,0,0,0,0,0,5471,5472,5471,5472,5471,5472,5471,5472,5471,5472,5471,5472,5471,5472,5471,5472,5471,5472,5471,5472,5471,5472,5471,5472,5471,5472,5471,5472,5471,0,0,0,0,0,0,0,0,0,0,0,0,0,0,0,0,0,0,0,0,0,0,0,0,0,0,0,0,0,0,0,0,0,0,0,0,0,0,0,0,
0,0,0,0,0,0,0,0,0,0,0,0,0,0,0,0,0,0,0,0,0,0,0,0,0,0,0,0,0,0,0,5560,5561,5560,5561,5560,5561,5560,5561,5560,5561,5560,5561,5560,5561,5560,5561,5560,5561,5560,5561,5560,5561,5560,5561,5560,5561,5560,5561,5560,0,0,0,0,0,0,0,0,0,0,0,0,0,0,0,0,0,0,0,0,0,0,0,0,0,0,0,0,0,0,0,0,0,0,0,0,0,0,0,0,
0,0,0,0,0,0,0,0,0,0,0,0,0,0,0,0,0,0,0,0,0,0,0,0,0,0,0,0,0,0,0,5382,5383,5382,5383,5382,5383,5382,5383,5382,5383,5382,5383,5382,5383,5382,5383,5382,5383,5382,5383,5382,5383,5382,5383,5382,5383,5382,5383,5382,0,0,0,0,0,0,0,0,0,0,0,0,0,0,0,0,0,0,0,0,0,0,0,0,0,0,0,0,0,0,0,0,0,0,0,0,0,0,0,0,
0,0,0,0,0,0,0,0,0,0,0,0,0,0,0,0,0,0,0,0,0,0,0,0,0,0,0,0,0,0,0,5471,5472,5471,5472,5471,5472,5471,5472,5471,5472,5471,5472,5471,5472,5471,5472,5471,5472,5471,5472,5471,5472,5471,5472,5471,5472,5471,5472,5471,0,0,0,0,0,0,0,0,0,0,0,0,0,0,0,0,0,0,0,0,0,0,0,0,0,0,0,0,0,0,0,0,0,0,0,0,0,0,0,0,
0,0,0,0,0,0,0,0,0,0,0,0,0,0,0,0,0,0,0,0,0,0,0,0,0,0,0,0,0,0,0,5560,5561,5560,5561,5560,5561,5560,5561,5560,5561,5560,5561,5560,5398,5399,5400,5401,5402,5403,5404,5401,5402,5403,5404,5398,5399,5400,5401,5402,5403,5404,5398,5399,5400,5401,5402,5403,5404,5398,5399,5400,5401,5402,5403,5404,0,0,0,0,0,0,0,0,0,0,0,0,0,0,0,0,0,0,0,0,0,0,0,0,
0,0,0,0,0,0,0,0,0,0,0,0,0,0,0,0,0,0,0,0,0,0,0,0,0,0,0,0,0,0,0,5382,5383,5382,5383,5382,5383,5382,5383,5382,5383,5382,5383,5382,5487,5488,5489,5490,5491,5492,5493,5490,5491,5492,5493,5487,5488,5489,5490,5491,5492,5493,5487,5488,5489,5490,5491,5492,5493,5487,5488,5489,5490,5491,5492,5493,0,0,0,0,0,0,0,0,0,0,0,0,0,0,0,0,0,0,0,0,0,0,0,0,
0,0,0,0,0,0,0,0,0,0,0,0,0,0,0,0,0,0,0,0,0,0,0,0,0,0,0,0,0,0,0,5471,5472,5471,5472,5471,5472,5471,5472,5471,5472,5471,5472,5471,5576,5577,5578,5579,5580,5581,5582,5579,5580,5581,5582,5576,5577,5578,5579,5580,5581,5582,5576,5577,5578,5579,5580,5581,5582,5576,5577,5578,5579,5580,5581,5582,0,0,0,0,0,0,0,0,0,0,0,0,0,0,0,0,0,0,0,0,0,0,0,0,
0,0,0,0,0,0,0,0,0,0,0,0,0,0,0,0,0,0,0,0,0,0,0,0,0,0,0,0,0,0,0,5560,5561,5560,5561,5560,5561,5560,5561,5560,5561,5560,5561,5560,5665,5666,5667,5668,5669,5670,5671,5668,5669,5670,5671,5665,5666,5667,5668,5669,5670,5671,5665,5666,5667,5668,5669,5670,5671,5665,5666,5667,5668,5669,5670,5671,0,0,0,0,0,0,0,0,0,0,0,0,0,0,0,0,0,0,0,0,0,0,0,0,
0,0,0,0,0,0,0,0,0,0,0,0,0,0,0,0,0,0,0,0,0,0,0,0,0,0,0,0,0,0,0,5382,5383,5382,5383,5382,5383,5382,5383,5382,5383,5382,5383,5382,5566,5567,5568,5569,5570,5571,5760,5757,5758,5759,5760,5754,5755,5756,5757,5758,5759,5760,5754,5755,5756,5757,5758,5759,5760,5754,5755,5756,5757,5758,5759,5760,0,0,0,0,0,0,0,0,0,0,0,0,0,0,0,0,0,0,0,0,0,0,0,0,
0,0,0,0,0,0,0,0,0,0,0,0,0,0,0,0,0,0,0,0,0,0,0,0,0,0,0,0,0,0,0,5471,5472,5471,5472,5471,5472,5471,5472,5471,5472,5471,5472,5471,5566,5567,5568,5569,5570,5571,5848,5848,5848,5848,5849,5848,5849,5849,5849,5849,5849,5849,5849,5849,5849,5849,5849,5849,5849,5849,5566,5567,5568,5569,5570,5571,0,0,0,0,0,0,0,0,0,0,0,0,0,0,0,0,0,0,0,0,0,0,0,0,
0,0,0,0,0,0,0,0,0,0,0,0,0,0,0,0,0,0,0,0,0,0,0,0,0,0,0,0,0,0,0,5560,5561,5560,5561,5560,5561,5560,5561,5560,5561,5560,5561,5560,5566,5567,5568,5569,5570,5571,5561,5560,5561,5560,5561,5560,5561,5560,5561,5560,0,0,0,0,0,0,0,0,0,0,5566,5567,5568,5569,5570,5571,0,0,0,0,0,0,0,0,0,0,0,0,0,0,0,0,0,0,0,0,0,0,0,0,
0,0,0,0,0,0,0,0,0,0,0,5382,5383,5382,5383,5382,5383,5382,5383,5382,5383,5382,5383,5382,5383,5382,5383,5382,5383,5382,5383,5382,5383,5382,5383,5382,5383,5382,5383,5382,5383,5382,5383,5382,5566,5567,5568,5569,5570,5571,5383,5382,5383,5382,5383,5382,5383,5382,5383,5382,0,0,0,0,0,0,0,0,0,0,5566,5567,5568,5569,5570,5571,0,0,0,0,0,0,0,0,0,0,0,0,0,0,0,0,0,0,0,0,0,0,0,0,
0,0,0,0,0,0,0,0,0,0,0,5471,5472,5471,5472,5471,5472,5471,5472,5471,5472,5471,5472,5471,5472,5471,5472,5471,5472,5471,5472,5471,5472,5471,5472,5471,5472,5471,5472,5471,5472,5471,5472,5471,5566,5567,5568,5569,5570,5571,5472,5471,5472,5471,5472,5471,5472,5471,5472,5471,0,0,0,0,0,0,0,0,0,0,5566,5567,5568,5569,5570,5571,0,0,0,0,0,0,0,0,0,0,0,0,0,0,0,0,0,0,0,0,0,0,0,0,
0,0,0,0,0,0,0,0,0,0,0,5560,5561,5560,5561,5560,5561,5560,5561,5560,5561,5560,5561,5560,5561,5560,5561,5560,5561,5560,5561,5560,5561,5560,5561,5560,5561,5560,5561,5560,5561,5560,5561,5560,5566,5567,5568,5569,5570,5571,5561,5560,5561,5560,5561,5560,5561,5560,5561,5560,0,0,0,0,0,0,0,0,0,0,5566,5567,5568,5569,5570,5571,0,0,0,0,0,0,0,0,0,0,0,0,0,0,0,0,0,0,0,0,0,0,0,0,
0,0,0,0,0,0,0,0,0,0,0,5382,5383,5382,5383,5382,5383,5382,5383,5382,5383,5382,5383,5382,5383,5382,5383,5382,5383,5382,5383,5382,5383,5382,5383,5382,5383,5382,5383,5382,5383,5382,5383,5382,5566,5567,5568,5569,5570,5571,5383,5382,5383,5382,5383,5382,5383,5382,5383,5382,0,0,0,0,0,0,0,0,0,0,5566,5567,5568,5569,5570,5571,0,0,0,0,0,0,0,0,0,0,0,0,0,0,0,0,0,0,0,0,0,0,0,0,
0,0,0,0,0,0,0,0,0,0,0,5471,5472,5471,5472,5471,5472,5471,5472,5471,5472,5471,5472,5471,5472,5471,5472,5471,5472,5471,5472,5471,5472,5471,5472,5471,5472,5471,5472,5471,5472,5471,5472,5471,5566,5567,5568,5569,5570,5571,5472,5471,5472,5471,5472,5471,5472,5471,5472,5471,0,0,0,0,0,0,0,0,0,0,5566,5567,5568,5569,5570,5571,0,0,0,0,0,0,0,0,0,0,0,0,0,0,0,0,0,0,0,0,0,0,0,0,
0,0,0,0,0,0,0,0,0,0,0,5560,5561,5560,5561,5560,5561,5560,5561,5560,5561,5560,5561,5560,5561,5560,5561,5560,5561,5560,5561,5560,5561,5560,5561,5560,5561,5560,5561,5560,5561,5560,5561,5560,5566,5567,5568,5569,5570,5571,5561,5560,5561,5560,5561,5560,5561,5560,5561,5560,0,0,0,0,0,0,0,0,0,0,5566,5567,5568,5569,5570,5571,0,0,0,0,0,0,0,0,0,0,0,0,0,0,0,0,0,0,0,0,0,0,0,0,
0,0,0,0,0,0,0,0,0,0,0,5382,5383,5382,5383,5382,5383,5382,5383,5382,5383,5382,5383,5382,5383,5382,5383,5382,5383,5382,5383,5382,5383,5382,5383,5382,5383,5382,5383,5382,5383,5382,5383,5382,5566,5567,5568,5569,5570,5571,5383,5382,5383,5382,5383,5382,5383,5382,5383,5382,0,0,0,0,0,0,0,0,0,0,5566,5567,5568,5569,5570,5571,0,0,0,0,0,0,0,0,0,0,0,0,0,0,0,0,0,0,0,0,0,0,0,0,
0,0,0,0,0,0,0,0,0,0,0,5471,5472,5471,5472,5471,5472,5471,5472,5471,5472,5471,5472,5471,5472,5471,5472,5471,5472,5471,5472,5471,5472,5471,5472,5471,5472,5471,5472,5471,5472,5471,5472,5471,5566,5567,5568,5569,5570,5571,5472,5471,5472,5471,5472,5471,5472,5471,5472,5471,0,0,0,0,0,0,0,0,0,0,5566,5567,5568,5569,5570,5571,0,0,0,0,0,0,0,0,0,0,0,0,0,0,0,0,0,0,0,0,0,0,0,0,
0,0,0,0,0,0,0,0,0,0,0,5560,5561,5560,5561,5560,5561,5560,5561,5560,5561,5560,5561,5560,5561,5560,5561,5560,5561,5560,5561,5560,5561,5560,5561,5560,5561,5560,5561,5560,5561,5560,5561,5560,5566,5567,5568,5569,5570,5571,5561,5560,5561,5560,5561,5560,5561,5560,5561,5560,0,0,0,0,0,0,0,0,0,0,5566,5567,5568,5569,5570,5571,0,0,0,0,0,0,0,0,0,0,0,0,0,0,0,0,0,0,0,0,0,0,0,0,
0,0,0,0,0,0,0,0,0,0,0,5382,5383,5382,5383,5382,5383,5382,5383,5382,5383,5382,5383,5382,5383,5382,5383,5382,5383,5382,5383,5382,5383,5382,5383,6423,6333,5382,5383,5382,5383,5382,5383,5382,5566,5567,5568,5569,5570,5571,5383,5382,5383,5382,5383,5382,5383,5382,5383,5382,0,0,0,0,0,0,0,0,0,0,5566,5567,5568,5569,5570,5571,0,0,0,0,0,0,0,0,0,0,0,0,0,0,0,0,0,0,0,0,0,0,0,0,
0,0,0,0,0,0,0,0,0,0,0,5471,5472,5471,5472,5471,5472,5471,5472,5471,5472,5471,5472,5471,5472,5471,5472,5471,5472,5471,5472,5471,5472,5471,5472,5471,6512,5471,5472,5471,5472,5471,5472,5471,5566,5567,5568,5569,5570,5571,5472,5471,5472,5471,5472,5471,5472,5471,5472,5471,0,0,0,0,0,0,0,0,0,0,5566,5567,5568,5569,5570,5571,0,0,0,0,0,0,0,0,0,0,0,0,0,0,0,0,0,0,0,0,0,0,0,0,
0,0,0,0,0,0,0,0,0,0,0,5560,5561,5560,5561,5560,5561,5560,5561,5560,5561,5560,5561,5560,5561,5560,5561,5560,5561,5560,5561,5560,5561,5560,5561,5560,5561,5560,5561,5560,5561,5560,5561,5560,5566,5567,5568,5569,5570,5571,5561,5560,5561,5560,5561,5560,5561,5560,5561,5560,0,0,0,0,0,0,0,0,0,0,5566,5567,5568,5569,5570,5571,0,0,0,0,0,0,0,0,0,0,0,0,0,0,0,0,0,0,0,0,0,0,0,0,
0,0,0,0,0,0,0,0,0,0,0,5382,5383,5382,5383,5382,5383,5382,5383,5382,5383,5382,5383,5382,5383,5382,5383,5382,5383,5382,5383,5382,5383,5382,5383,5382,5383,5382,5383,5382,5383,5382,5383,5382,5566,5567,5568,5569,5570,5571,5383,5382,5383,5382,5383,5382,5383,5382,5383,5382,0,0,0,0,0,0,0,0,0,0,5566,5567,5568,5569,5570,5571,0,0,0,0,0,0,0,0,0,0,0,0,0,0,0,0,0,0,0,0,0,0,0,0,
0,0,0,0,0,0,0,0,0,0,0,0,0,0,0,0,0,0,5398,5399,5400,5401,5402,5403,5404,5404,5404,5404,5404,5404,5404,5404,5404,5404,5404,5404,5404,5404,5404,5404,5404,5404,5404,5404,5566,5567,5568,5569,5570,5571,5404,5398,5399,5400,5401,5402,5398,5399,5400,5401,5402,5398,5399,5400,5401,5402,5403,5398,5399,5398,5566,5567,5568,5569,5570,5571,0,0,0,0,0,0,0,0,0,0,0,0,0,0,0,0,0,0,0,0,0,0,0,0,
0,0,0,0,0,0,0,0,0,0,0,0,0,0,0,0,0,0,5487,5488,5489,5490,5491,5492,5493,5493,5493,5493,5493,5493,5493,5493,5493,5493,5493,5493,5493,5493,5493,5493,5493,5493,5493,5493,5655,5656,5657,5658,5659,5660,5493,5487,5488,5489,5490,5491,5487,5488,5489,5490,5491,5487,5488,5489,5490,5491,5492,5487,5488,5487,5655,5656,5657,5658,5659,5660,0,0,0,0,0,0,0,0,0,0,0,0,0,0,0,0,0,0,0,0,0,0,0,0,
0,0,0,0,0,0,0,0,0,0,0,0,0,0,0,0,0,0,5576,5577,5578,5579,5580,5581,5582,5582,5582,5582,5582,5582,5582,5582,5582,5582,5582,5582,5582,5582,5582,5582,5582,5582,5582,5582,5576,5577,5578,5579,5580,5581,5582,5576,5577,5578,5579,5580,5576,5577,5578,5579,5580,5576,5577,5578,5579,5580,5581,5576,5577,5576,5577,5578,5579,5580,5581,5582,0,0,0,0,0,0,0,0,0,0,0,0,0,0,0,0,0,0,0,0,0,0,0,0,
0,0,0,0,0,0,0,0,0,0,0,0,0,0,0,0,0,0,5665,5666,5667,5668,5669,5670,5671,5671,5671,5671,5671,5671,5671,5671,5671,5671,5671,5671,5671,5671,5671,5671,5671,5671,5671,5671,5565,5565,5566,5567,5568,5569,5570,5665,5666,5667,5668,5669,5665,5666,5667,5668,5669,5665,5666,5667,5668,5669,5670,5665,5666,5665,5666,5667,5668,5669,5670,5671,0,0,0,0,0,0,0,0,0,0,0,0,0,0,0,0,0,0,0,0,0,0,0,0,
0,0,0,0,0,0,0,0,0,0,0,0,0,0,0,0,0,0,5754,5755,5756,5757,5758,5759,5760,5760,5760,5760,5760,5760,5760,5760,5760,5760,5760,5760,5760,5760,5760,5760,5760,5760,5760,5760,5654,5654,5655,5656,5657,5658,5659,5754,5755,5756,5757,5758,5754,5755,5756,5757,5758,5754,5755,5756,5757,5758,5759,5754,5755,5754,5755,5756,5757,5758,5759,5760,0,0,0,0,0,0,0,0,0,0,0,0,0,0,0,0,0,0,0,0,0,0,0,0,
0,0,0,0,0,0,0,0,0,0,0,0,0,0,0,0,0,0,5565,5566,5567,5568,5569,5570,5848,5848,5848,5848,5848,5848,5848,5848,5848,5848,5848,5848,5848,5848,5848,5848,5848,5848,5848,5848,5654,5655,5656,5657,5658,5659,5848,5848,5848,5848,5848,5848,5848,5848,5848,5849,5848,5849,5849,5849,5849,5849,5849,5849,5849,5849,5848,5849,5849,5849,5849,5849,0,0,0,0,0,0,0,0,0,0,0,0,0,0,0,0,0,0,0,0,0,0,0,0,
0,0,0,0,0,0,0,0,0,0,0,0,0,0,0,0,0,0,5565,5566,5567,5568,5569,5570,5472,5471,5472,5471,5472,5471,5472,5471,5472,5471,5472,5471,5472,5471,5472,5471,5472,5471,5472,5471,5654,5655,5656,5657,5658,5659,5472,5471,5472,5471,5472,5471,5472,5471,5472,5471,5472,5471,5472,5471,5472,5471,5472,5471,5472,5471,5472,5471,5472,5471,0,0,0,0,0,0,0,0,0,0,0,0,0,0,0,0,0,0,0,0,0,0,0,0,0,0,
0,0,0,0,0,0,0,0,0,0,0,0,0,0,0,0,0,0,5565,5566,5567,5568,5569,5570,5561,5560,5561,5560,5561,5560,5561,5560,5561,5560,5561,5560,5561,5560,5561,5560,5561,5560,5561,5560,5565,5566,5567,5568,5569,5570,5561,5560,5561,5560,5561,5560,5561,5560,5561,5560,5561,5560,5561,5560,5561,5560,5561,5560,5561,5560,5561,5560,5561,5560,0,0,0,0,0,0,0,0,0,0,0,0,0,0,0,0,0,0,0,0,0,0,0,0,0,0,
0,0,0,0,0,0,0,0,0,0,0,0,0,0,0,0,0,0,5565,5566,5567,5568,5569,5570,5383,5382,5383,5382,5383,5382,5383,5382,5383,5382,5383,5382,5383,5382,5383,5382,5383,5382,5383,5382,5565,5566,5567,5568,5569,5570,5383,5382,5383,5382,5383,5382,5383,5382,5383,5382,5383,5382,5383,5382,5383,5382,5383,5382,5383,5382,5383,5382,5383,5382,0,0,0,0,0,0,0,0,0,0,0,0,0,0,0,0,0,0,0,0,0,0,0,0,0,0,
0,0,0,0,0,0,0,0,0,0,0,0,0,0,0,0,0,0,5565,5566,5567,5568,5569,5570,5472,5471,5472,5471,5472,5471,5472,5471,5472,5471,5472,5471,5472,5471,5472,5471,5472,5471,5472,5471,5565,5566,5567,5568,5569,5570,5472,5471,5472,5471,5472,5471,5472,5471,5472,5471,5472,5471,5472,5471,5472,5471,5472,5471,5472,5471,5472,5471,5472,5471,0,0,0,0,0,0,0,0,0,0,0,0,0,0,0,0,0,0,0,0,0,0,0,0,0,0,
0,0,0,0,0,0,0,0,0,0,0,0,0,0,0,0,0,0,5565,5566,5567,5568,5569,5570,5561,5560,5561,5560,5561,5560,5561,5560,5561,5560,5561,5560,5561,5560,5561,5560,5561,5560,5561,5560,5565,5566,5567,5568,5569,5570,5561,5560,5561,5560,5561,5560,5561,5560,5561,5560,5561,5560,5561,5560,5561,5560,5561,5560,5561,5560,5561,5560,5561,5560,0,0,0,0,0,0,0,0,0,0,0,0,0,0,0,0,0,0,0,0,0,0,0,0,0,0,
0,0,0,0,0,0,0,0,0,0,0,0,0,0,0,0,0,0,5565,5566,5567,5568,5569,5570,5383,5382,5383,5382,5383,5382,5383,5382,5383,5382,5383,5382,5383,5382,5383,5382,5383,5382,5383,5382,5565,5566,5567,5568,5569,5570,5383,5382,5383,5382,5383,5382,5383,5382,5383,5382,5383,5382,5383,5382,5383,5382,5383,5382,5383,5382,5383,5382,5383,5382,0,0,0,0,0,0,0,0,0,0,0,0,0,0,0,0,0,0,0,0,0,0,0,0,0,0,
0,0,0,0,0,0,0,0,0,0,0,0,0,0,0,0,0,0,5565,5566,5567,5568,5569,5570,5472,5471,5472,5471,5472,5471,5472,5471,5472,5471,5472,5471,5472,5471,5472,5471,5472,5471,5472,5471,5565,5566,5567,5568,5569,5570,5472,5471,5472,5471,5472,5471,5472,5471,5472,5471,5472,5471,5472,5471,5472,5471,5472,5471,5472,5471,5472,5471,5472,5471,0,0,0,0,0,0,0,0,0,0,0,0,0,0,0,0,0,0,0,0,0,0,0,0,0,0,
0,0,0,0,0,0,0,0,0,0,0,0,0,0,0,0,0,0,5565,5566,5567,5568,5569,5570,5561,5560,5561,5560,5561,5560,5561,5560,5561,5560,5561,5560,5561,5560,5561,5560,5561,5560,5561,5560,5565,5566,5567,5568,5569,5570,5561,5560,5561,5560,5561,5560,5561,5560,5561,5560,5561,5560,5561,5560,5561,5560,5561,5560,5561,5560,5561,5560,5561,5560,0,0,0,0,0,0,0,0,0,0,0,0,0,0,0,0,0,0,0,0,0,0,0,0,0,0,
0,0,0,0,0,0,0,0,0,0,0,0,0,0,0,0,0,0,5565,5566,5567,5568,5569,5570,5383,5382,5383,5382,5383,5382,5383,5382,5383,5382,5383,5382,5383,5382,5383,5382,5383,5382,5383,5382,5565,5566,5567,5568,5569,5570,5383,5382,5383,5382,5383,5382,5383,5382,5383,5382,5383,5382,5383,5382,5383,5382,5383,5382,5383,5382,5383,5382,5383,5382,0,0,0,0,0,0,0,0,0,0,0,0,0,0,0,0,0,0,0,0,0,0,0,0,0,0,
0,0,0,0,0,0,0,0,0,0,0,0,0,0,0,0,0,0,5565,5566,5567,5568,5569,5570,5472,5471,5472,5471,5472,5471,5472,5471,5472,5471,5472,5471,5472,5471,5472,5471,5472,5471,5472,5471,5565,5566,5567,5568,5569,5570,5472,5471,5472,5471,5472,5471,5472,5471,5472,5471,5472,5471,5472,5471,5472,5471,5472,5471,5472,5471,5472,5471,5472,5471,0,0,0,0,0,0,0,0,0,0,0,0,0,0,0,0,0,0,0,0,0,0,0,0,0,0,
0,0,0,0,0,0,0,0,0,0,0,0,0,0,0,0,0,0,5565,5566,5567,5568,5569,5570,5561,5560,5561,5560,5561,5560,5561,5560,5561,5560,5561,5560,5561,5560,5561,5560,5561,5560,5561,5560,5565,5566,5567,5568,5569,5570,5561,5560,5561,5560,5561,5560,5561,5560,5561,5560,5561,5560,5561,5560,5561,5560,5561,5560,5561,5560,5561,5560,5561,5560,0,0,0,0,0,0,0,0,0,0,0,0,0,0,0,0,0,0,0,0,0,0,0,0,0,0,
0,0,0,0,0,0,0,0,0,0,0,0,0,0,0,0,0,0,5565,5566,5567,5568,5569,5570,5383,5382,5383,5382,5383,5382,5383,5382,5383,5382,5383,5382,5383,5382,5383,5382,5383,5382,5383,5382,5565,5566,5567,5568,5569,5570,5383,0,0,0,0,0,0,0,0,0,0,0,0,0,0,0,0,0,0,0,0,0,0,0,0,0,0,0,0,0,0,0,0,0,0,0,0,0,0,0,0,0,0,0,0,0,0,0,0,0,
0,0,0,0,0,0,0,0,0,0,0,0,0,0,0,0,0,0,5565,5566,5567,5568,5569,5570,5472,5471,5472,5471,5472,5471,5472,5471,5472,5471,5472,5471,5472,5471,5472,5471,5472,5471,5472,5471,5565,5566,5567,5568,5569,5570,5472,0,0,0,0,0,0,0,0,0,0,0,0,0,0,0,0,0,0,0,0,0,0,0,0,0,0,0,0,0,0,0,0,0,0,0,0,0,0,0,0,0,0,0,0,0,0,0,0,0,
0,0,0,0,0,0,0,0,0,0,0,0,0,0,0,0,0,0,5565,5566,5567,5568,5569,5570,5561,5560,5561,5560,5561,5560,5561,5560,5561,5560,5561,5560,5561,5560,5561,5560,5561,5560,5561,5560,5565,5566,5567,5568,5569,5570,5561,0,0,0,0,0,0,0,0,0,0,0,0,0,0,0,0,0,0,0,0,0,0,0,0,0,0,0,0,0,0,0,0,0,0,0,0,0,0,0,0,0,0,0,0,0,0,0,0,0,
0,0,0,0,0,0,0,0,0,0,0,0,0,0,0,0,0,0,5565,5566,5567,5568,5569,5570,5398,5398,5398,5398,5398,5398,5398,5398,5398,5398,5398,5398,5398,5398,5398,5398,5398,5398,5398,5398,5565,5566,5567,5568,5569,5570,5383,0,0,0,0,0,0,0,0,0,0,0,0,0,0,0,0,0,0,0,0,0,0,0,0,0,0,0,0,0,0,0,0,0,0,0,0,0,0,0,0,0,0,0,0,0,0,0,0,0,
0,0,0,0,0,0,0,0,0,0,0,0,0,0,0,0,0,0,5565,5566,5567,5568,5569,5570,5487,5487,5487,5487,5487,5487,5487,5487,5487,5487,5487,5487,5487,5487,5487,5487,5487,5487,5487,5487,5565,5566,5567,5568,5569,5570,5472,0,0,0,0,0,0,0,0,0,0,0,0,0,0,0,0,0,0,0,0,0,0,0,0,0,0,0,0,0,0,0,0,0,0,0,0,0,0,0,0,0,0,0,0,0,0,0,0,0,
0,0,0,0,0,0,0,0,0,0,0,0,0,0,0,0,0,0,5576,5576,5576,5576,5576,5576,5576,5576,5576,5576,5576,5576,5576,5576,5576,5576,5576,5576,5576,5576,5576,5576,5576,5576,5576,5576,5577,5578,5579,5580,5581,5582,5561,0,0,0,0,0,0,0,0,0,0,0,0,0,0,0,0,0,0,0,0,0,0,0,0,0,0,0,0,0,0,0,0,0,0,0,0,0,0,0,0,5382,0,0,0,0,0,0,0,0,
0,0,0,0,0,0,0,0,0,0,0,0,0,0,0,0,0,0,5665,5665,5665,5665,5665,5665,5665,5665,5665,5665,5665,5665,5665,5665,5665,5665,5665,5665,5665,5665,5665,5665,5665,5665,5665,5665,5666,5667,5668,5669,5670,5671,0,0,0,0,0,0,0,0,0,0,0,0,0,0,0,0,0,0,0,0,0,0,0,0,0,0,0,0,0,0,0,0,0,0,0,0,0,0,0,0,0,0,0,0,0,0,0,0,0,0,
0,0,0,0,0,0,0,0,0,0,0,0,0,0,0,0,0,0,5754,5754,5754,5754,5754,5754,5754,5754,5754,5754,5754,5754,5754,5754,5754,5754,5754,5754,5754,5754,5754,5754,5754,5754,5754,5754,5755,5756,5757,5758,5759,5760,0,0,0,0,0,0,0,0,0,0,0,0,0,0,0,0,0,0,0,0,0,0,0,0,0,0,0,0,0,0,0,0,0,0,0,0,0,0,0,0,0,0,0,0,0,0,0,0,0,0,
0,0,0,0,0,0,0,0,0,0,0,0,0,0,0,0,0,0,5848,5849,5849,5849,5849,5849,5849,5849,5849,5849,5849,5849,5849,5849,5849,5849,5849,5849,5849,5849,5849,5849,5849,5849,5849,5849,5849,5849,5849,5849,5849,5849,0,0,0,0,0,0,0,0,0,0,0,0,0,0,0,0,0,0,0,0,0,0,0,0,0,0,0,0,0,0,0,0,0,0,0,0,0,0,0,0,0,0,0,0,0,0,0,0,0,0,
0,0,0,0,0,0,0,0,0,0,0,0,0,0,0,0,0,0,0,0,0,0,0,0,0,0,0,0,0,0,0,0,0,0,0,0,0,0,0,0,0,0,0,0,0,0,0,0,0,0,0,0,0,0,0,0,0,0,0,0,0,0,0,0,0,0,0,0,0,0,0,0,0,0,0,0,0,0,0,0,0,0,0,0,0,0,0,0,0,0,0,0,0,0,0,0,0,0,0,0,
0,0,0,0,0,0,0,0,0,0,0,0,0,0,0,0,0,0,0,0,0,0,0,0,0,0,0,0,0,0,0,0,0,0,0,0,0,0,0,0,0,0,0,0,0,0,0,0,0,0,0,0,0,0,0,0,0,0,0,0,0,0,0,0,0,0,0,0,0,0,0,0,0,0,0,0,0,0,0,0,0,0,0,0,0,0,0,0,0,0,0,0,0,0,0,0,0,0,0,0,
0,0,0,0,0,0,0,0,0,0,0,0,0,0,0,0,0,0,0,0,0,0,0,0,0,0,0,0,0,0,0,0,0,0,0,0,0,0,0,0,0,0,0,0,0,0,0,0,0,0,0,0,0,0,0,0,0,0,0,0,0,0,0,0,0,0,0,0,0,0,0,0,0,0,0,0,0,0,0,0,0,0,0,0,0,0,0,0,0,0,0,0,0,0,0,0,0,0,0,0,
0,0,0,0,0,0,0,0,0,0,0,0,0,0,0,0,0,0,0,0,0,0,0,0,0,0,0,0,0,0,0,0,0,0,0,0,0,0,0,0,0,0,0,0,0,0,0,0,0,0,0,0,0,0,0,0,0,0,0,0,0,0,0,0,0,0,0,0,0,0,0,0,0,0,0,0,0,0,0,0,0,0,0,0,0,0,0,0,0,0,0,0,0,0,0,0,0,0,0,0
</data>
 </layer>
 <layer id="2" name="foreground" width="100" height="60">
  <data encoding="csv">
0,0,0,5382,5383,5382,5383,5382,5383,5382,5383,5382,5383,5382,5383,5382,5383,5382,5383,5382,5383,5382,5383,5382,5383,5382,5383,5382,5383,5382,5383,5382,5383,5382,5383,5382,5383,5382,5383,5382,5383,5382,5383,5382,5383,5382,5383,5382,5383,5382,5383,5382,5383,5382,5383,5382,5383,5382,5383,5382,5383,5382,5383,5382,5383,5382,5383,5382,5383,5382,5383,5382,5383,5382,0,0,0,0,0,0,0,0,0,0,0,0,0,0,0,0,0,0,0,0,0,0,0,0,0,0,
0,0,0,5471,5472,5471,5472,5471,5472,5471,5472,5471,5472,5471,5472,5471,5472,5471,5472,5471,5472,5471,5472,5471,5472,5471,5472,5471,5472,5471,5472,5471,5472,5471,5472,5471,5472,5471,5472,5471,5472,5471,5472,5471,5472,5471,5472,5471,5472,5471,5472,5471,5472,5471,5472,5471,5472,5471,5472,5471,5472,5471,5472,5471,5472,5471,5472,5471,5472,5471,5472,5471,5472,5471,0,0,0,0,0,0,0,0,0,0,0,0,0,0,0,0,0,0,0,0,0,0,0,0,0,0,
0,0,0,5560,5561,5560,5561,5560,5561,5560,5561,5560,5561,5560,5561,5560,5561,5560,5561,5560,5561,5560,5561,5560,5561,5560,5561,5560,5561,5560,5561,5560,5561,5560,5561,5560,5561,5560,5561,5560,5561,5560,5561,5560,5561,5560,5561,5560,5561,5560,5561,5560,5561,5560,5561,5560,5561,5560,5561,5560,5561,5560,5561,5560,5561,5560,5561,5560,5561,5560,5561,5560,5561,5560,5383,0,0,0,0,0,0,0,0,0,0,0,0,0,0,0,0,0,0,0,0,0,0,0,0,0,
0,0,0,5382,5383,5382,5383,5382,5383,5382,5383,5382,5383,5382,5383,5382,5383,5382,5383,5382,5383,5382,5383,5382,5383,5382,5383,5382,5383,5382,5383,5382,5383,5382,5383,5382,5383,5382,5383,5382,5383,5382,5383,5382,5383,5382,5383,5382,5383,5382,5383,5382,5383,5382,5383,5382,5383,5382,5383,5382,0,0,0,0,0,0,0,0,0,0,0,0,0,0,0,0,0,0,0,0,0,0,0,0,0,0,0,0,0,0,0,0,0,0,0,0,0,0,0,0,
0,0,0,5471,5472,5471,5472,5471,5472,5471,5472,5471,5472,5471,5472,5471,5472,5471,5472,5471,5472,5471,5472,5471,5472,5471,5472,5471,5472,5471,5472,5471,5472,5471,5472,5471,5472,5471,5472,5471,5472,5471,5472,5471,5472,5471,5472,5471,5472,5471,5472,5471,5472,5471,5472,5471,5472,5471,5472,5471,0,0,0,0,0,0,0,0,0,0,0,0,0,0,0,0,0,0,0,0,0,0,0,0,0,0,0,0,0,0,0,0,0,0,0,0,0,0,0,0,
0,0,0,5560,5561,5560,5561,5560,5561,5560,5561,5560,5561,5560,5561,5560,5561,5560,5561,5560,5561,5560,5561,5560,5561,5560,5561,5560,5561,5560,5561,5560,5561,5560,5561,5560,5561,5560,5561,5560,5561,5560,5561,5560,5561,5560,5561,5560,5561,5560,5561,5560,5561,5560,5561,5560,5561,5560,5561,5560,0,0,0,0,0,0,0,0,0,0,0,0,0,0,0,0,0,0,0,0,0,0,0,0,0,0,0,0,0,0,0,0,0,0,0,0,0,0,0,0,
0,0,0,5382,5383,5382,5383,5382,5383,5382,5383,5382,5383,5382,5383,5382,5383,5382,5383,5382,5383,5382,5383,5382,5383,5382,5383,5382,5383,5382,5383,5382,5383,5382,5383,5382,5383,5382,5383,5382,5383,5382,5383,5382,5383,5382,5383,5382,5383,5382,5383,5382,5383,5382,5383,5382,5383,5382,5383,5382,0,0,0,0,0,0,0,0,0,0,0,0,0,0,0,0,0,0,0,0,0,0,0,0,0,0,0,0,0,0,0,0,0,0,0,0,0,0,0,0,
0,0,0,5471,5472,5471,5472,5471,5472,5471,5472,5471,5472,5471,5472,5471,5472,5471,5472,5471,5472,5471,5472,5471,5472,5471,5472,5471,5472,5471,5472,5471,5472,5471,5472,5471,5472,5471,5472,5471,5472,5471,5472,5471,5472,5471,5472,5471,5472,5471,5472,5471,5472,5471,5472,5471,5472,5471,5472,5471,0,0,0,0,0,0,0,0,0,0,0,0,0,0,0,0,0,0,0,0,0,0,0,0,0,0,0,0,0,0,0,0,0,0,0,0,0,0,0,0,
0,0,0,5560,5561,5560,5561,5560,5561,5560,5561,5560,5561,5560,5561,5560,5561,5560,5561,5560,5561,5560,5561,5560,5561,5560,5561,5560,5561,5560,5561,5560,5561,5560,5561,5560,5561,5560,5561,5560,5561,5560,5561,5560,5561,5560,5561,5560,5561,5560,5561,5560,5561,5560,5561,5560,5561,5560,5561,5560,0,0,0,0,0,0,0,0,0,0,0,0,0,0,0,0,0,0,0,0,0,0,0,0,0,0,0,0,0,0,0,0,0,0,0,0,0,0,0,0,
0,0,0,5382,5383,5382,5383,5382,5383,5382,5383,5382,5383,5382,5383,5382,5383,5382,5383,5382,5383,5382,5383,5382,5383,5382,5383,5382,5383,5382,5383,5382,5383,5382,5383,5382,5383,5382,5383,5382,5383,5382,5383,5382,5383,5382,5383,5382,5383,5382,5383,5382,5383,5382,5383,5382,5383,5382,5383,5382,0,0,0,0,0,0,0,0,0,0,0,0,0,0,0,0,0,0,0,0,0,0,0,0,0,0,0,0,0,0,0,0,0,0,0,0,0,0,0,0,
0,0,0,5471,5472,5471,5472,5471,5472,5471,5472,5471,5472,5471,5472,5471,5472,5471,5472,5471,5472,5471,5472,5471,5472,5471,5472,5471,5472,5471,5472,5471,5472,5471,5472,5471,5472,5471,5472,5471,5472,5471,5472,5471,5472,5471,5472,5471,5472,5471,5472,5471,5472,5471,5472,5471,5472,5471,5472,5471,0,0,0,0,0,0,0,0,0,0,0,0,0,0,0,0,0,0,0,0,0,0,0,0,0,0,0,0,0,0,0,0,0,0,0,0,0,0,0,0,
0,0,0,5560,5561,5560,5561,5560,5561,5560,5561,5560,5561,5560,5561,5560,5561,5560,5561,5560,5561,5560,5561,5560,5561,5560,5561,5560,5561,5560,5561,5560,5561,5560,5561,5560,5561,5560,5561,5560,5561,5560,5561,5560,5561,5560,5561,5560,5561,5560,5561,5560,5561,5560,5561,5560,5561,5560,5561,5560,0,0,0,0,0,0,0,0,0,0,0,0,0,0,0,0,0,0,0,0,0,0,0,0,0,0,0,0,0,0,0,0,0,0,0,0,0,0,0,0,
0,0,0,5382,5383,5382,5383,5382,5383,5382,5383,5382,5383,5382,5383,5382,5383,5382,5383,5382,5383,5382,5383,5382,5383,5382,5383,5382,5383,5382,5383,5382,5383,5382,5383,5382,5383,5382,5383,5382,5383,5382,5383,5382,5383,5382,5383,5382,5383,5382,5383,5382,5383,5382,5383,5382,5383,5382,5383,5382,0,0,0,0,0,0,0,0,0,0,0,0,0,0,0,0,0,0,0,0,0,0,0,0,0,0,0,0,0,0,0,0,0,0,0,0,0,0,0,0,
0,0,0,5471,5472,5471,5472,5471,5472,5471,5472,5471,5472,5471,5472,5471,5472,5471,5472,5471,5472,5471,5472,5471,5472,5471,5472,5471,5472,5471,5472,5471,5472,5471,5472,5471,5472,5471,5472,5471,5472,5471,5472,5471,5472,5471,5472,5471,5472,5471,5472,5471,5472,5471,5472,5471,5472,5471,5472,5471,0,0,0,0,0,0,0,0,0,0,0,0,0,0,0,0,0,0,0,0,0,0,0,0,0,0,0,0,0,0,0,0,0,0,0,0,0,0,0,0,
0,0,0,5560,5561,5560,5561,5560,5561,5560,5561,5560,5561,5560,5561,5560,5561,5560,5561,5560,5561,5560,5561,5560,5561,5560,5561,5560,5561,5560,5561,5560,5561,5560,5561,5560,5561,5560,5561,5560,5561,5560,5561,5560,5561,5560,5561,5560,5561,5560,5561,5560,5561,5560,5561,5560,5561,5560,5561,5560,0,0,0,0,0,0,0,0,0,0,0,0,0,0,0,0,0,0,0,0,0,0,0,0,0,0,0,0,0,0,0,0,0,0,0,0,0,0,0,0,
0,0,0,5382,5383,5382,5383,5382,5383,5382,5383,5382,5383,5382,5383,5382,5383,5382,5383,5382,5383,5382,5383,5382,5383,5382,5383,5382,5383,5382,5383,5382,5383,5382,5383,5382,5383,5382,5383,5382,5383,5382,5383,5382,5383,5382,5383,5382,5383,5382,5383,5382,5383,5382,5383,5382,5383,5382,5383,5382,0,0,0,0,0,0,0,0,0,0,0,0,0,0,0,0,0,0,0,0,0,0,0,0,0,0,0,0,0,0,0,0,0,0,0,0,0,0,0,0,
0,0,0,5471,5472,5471,5472,5471,5472,5471,5472,5471,5472,5471,5472,5471,5472,5471,5472,5471,5472,5471,5472,5471,5472,5471,5472,5471,5472,5471,5472,5471,5472,5471,5472,5471,5472,5471,5472,5471,5472,5471,5472,5471,5472,5471,5472,5471,5472,5471,5472,5471,5472,5471,5472,5471,5472,5471,5472,5471,0,0,0,0,0,0,0,0,0,0,0,0,0,0,0,0,0,0,0,0,0,0,0,0,0,0,0,0,0,0,0,0,0,0,0,0,0,0,0,0,
0,0,0,5560,5561,5560,5561,5560,5561,5560,5561,5560,5561,5560,5561,5560,5561,5560,5561,5560,5561,5560,5561,5560,5561,5560,5561,5560,5561,5560,5561,5560,5561,5560,5561,5560,5561,5560,5561,5560,5561,5560,5561,5560,5561,5560,5561,5560,5561,5560,5561,5560,5561,5560,5561,5560,5561,5560,5561,5560,0,0,0,0,0,0,0,0,0,0,0,0,0,0,0,0,0,0,0,0,0,0,0,0,0,0,0,0,0,0,0,0,0,0,0,0,0,0,0,0,
0,0,0,5382,5383,5382,5383,5382,5383,5382,5383,5382,5383,5382,5383,5382,5383,5382,5383,5382,5383,5382,5383,5382,5383,5382,5383,5382,5383,5382,5383,5382,5383,5382,5383,5382,5383,5382,5383,5382,5383,5382,5383,5382,5383,5382,5383,5382,5383,5382,5383,5382,5383,5382,5383,5382,5383,5382,5383,5382,0,0,0,0,0,0,0,0,0,0,0,0,0,0,0,0,0,0,0,0,0,0,0,0,0,0,0,0,0,0,0,0,0,0,0,0,0,0,0,0,
0,0,0,5471,5472,5471,5472,5471,5472,5471,5472,5471,5472,5471,5472,5471,5472,5471,5472,5471,5472,5471,5472,5471,5472,5471,5472,5471,5472,5471,5472,5471,5472,5471,5472,5471,5472,5471,5472,5471,5472,5471,5472,5471,5472,5471,5472,5471,5472,5471,5472,5471,5472,5471,5472,5471,5472,5471,5472,5471,0,0,0,0,0,0,0,0,0,0,0,0,0,0,0,0,0,0,0,0,0,0,0,0,0,0,0,0,0,0,0,0,0,0,0,0,0,0,0,0,
0,0,0,5560,5561,5560,5561,5560,5561,5560,5561,5560,5561,5560,5561,5560,5561,5560,5561,5560,5561,5560,5561,5560,5561,5560,5561,5560,5561,5560,5561,5560,5561,5560,5561,5560,5561,5560,5561,5560,5561,5560,5561,5560,5561,5560,5561,5560,5561,5560,5561,5560,5561,5560,5561,5560,5561,5560,5561,5560,0,0,0,0,0,0,0,0,0,0,0,0,0,0,0,0,0,0,0,0,0,0,0,0,0,0,0,0,0,0,0,0,0,0,0,0,0,0,0,0,
0,0,0,5382,5383,5382,5383,5382,5383,5382,5383,5382,5383,5382,5383,5382,5383,5382,5383,5382,5383,5382,5383,5382,5383,5382,5383,5382,5383,5382,5383,5382,5383,5382,5383,5382,5383,5382,5383,5382,5383,5382,5383,5382,5383,5382,5383,5382,5383,5382,5383,5382,5383,5382,5383,5382,5383,5382,5383,5382,0,0,0,0,0,0,0,0,0,0,0,0,0,0,0,0,0,0,0,0,0,0,0,0,0,0,0,0,0,0,0,0,0,0,0,0,0,0,0,0,
0,0,0,5471,5472,5471,5472,5471,5472,5471,5472,5471,5472,5471,5472,5471,5472,5471,5472,5471,5472,5471,5472,5471,5472,5471,5472,5471,5472,5471,5472,5471,5472,5471,5472,5471,5472,5471,5472,5471,5472,5471,5472,5471,5472,5471,5472,5471,5472,5471,5472,5471,5472,5471,5472,5471,5472,5471,5472,5471,0,0,0,0,0,0,0,0,0,0,0,0,0,0,0,0,0,0,0,0,0,0,0,0,0,0,0,0,0,0,0,0,0,0,0,0,0,0,0,0,
0,0,0,5560,5561,5560,5561,5560,5561,5560,5561,5560,5561,5560,5561,5560,5561,5560,5561,5560,5561,5560,5561,5560,5561,5560,5561,5560,5561,5560,5561,5560,5561,5560,5561,5560,5561,5560,5561,5560,5561,5560,5561,5560,5561,5560,5561,5560,5561,5560,5561,5560,5561,5560,5561,5560,5561,5560,5561,5560,0,0,0,0,0,0,0,0,0,0,0,0,0,0,0,0,0,0,0,0,0,0,0,0,0,0,0,0,0,0,0,0,0,0,0,0,0,0,0,0,
0,0,0,5382,5383,5382,5383,5382,5383,5382,5383,5382,5383,5382,5383,5382,5383,5382,5383,5382,5383,5382,5383,5382,5383,5382,5383,5382,5383,5382,5383,5382,5383,5382,5383,5382,5383,5382,5383,5382,5383,5382,5383,5382,5383,5382,5383,5382,5383,5382,5383,5382,5383,5382,5383,5382,5383,5382,5383,5382,0,0,0,0,0,0,0,0,0,0,0,0,0,0,0,0,0,0,0,0,0,0,0,0,0,0,0,0,0,0,0,0,0,0,0,0,0,0,0,0,
0,0,0,5471,5472,5471,5472,5471,5472,5471,5472,5471,5472,5471,5472,5471,5472,5471,5472,5471,5472,5471,5472,5471,5472,5471,5472,5471,5472,5471,5472,5471,5472,5471,5472,5471,5472,5471,5472,5471,5472,5471,5472,5471,5472,5471,5472,5471,5472,5471,5472,5471,5472,5471,5472,5471,5472,5471,5472,5471,0,0,0,0,0,0,0,0,0,0,0,0,0,0,0,0,0,0,0,0,0,0,0,0,0,0,0,0,0,0,0,0,0,0,0,0,0,0,0,0,
0,0,0,5560,5561,5560,5561,5560,5561,5560,5561,5560,5561,5560,5561,5560,5561,5560,5561,5560,5561,5560,5561,5560,5561,5560,5561,5560,5561,5560,5561,5560,5561,5560,5561,5560,5561,5560,5561,5560,5561,5560,5561,5560,5561,5560,5561,5560,5561,5560,5561,5560,5561,5560,5561,5560,5561,5560,5561,5560,0,0,0,0,0,0,0,0,0,0,0,0,0,0,0,0,0,0,0,0,0,0,0,0,0,0,0,0,0,0,0,0,0,0,0,0,0,0,0,0,
0,0,0,5382,5383,5382,5383,5382,5383,5382,5383,5382,5383,5382,5383,5382,5383,5382,5383,5382,5383,5382,5383,5382,5383,5382,5383,5382,5383,5382,5383,5382,5383,5382,5383,5382,5383,5382,5383,5382,5383,5382,5383,5382,5383,5382,5383,5382,5383,5382,5383,5382,5383,5382,5383,5382,5383,5382,5383,5382,0,0,0,0,0,0,0,0,0,0,0,0,0,0,0,0,0,0,0,0,0,0,0,0,0,0,0,0,0,0,0,0,0,0,0,0,0,0,0,0,
0,0,0,5471,5472,5471,5472,5471,5472,5471,5472,5471,5472,5471,5472,5471,5472,5471,5472,5471,5472,5471,5472,5471,5472,5471,5472,5471,5472,5471,5472,5471,5472,5471,5472,5471,5472,5471,5472,5471,5472,5471,5472,5471,5472,5471,5472,5471,5472,5471,5472,5471,5472,5471,5472,5471,5472,5471,5472,5471,0,0,0,0,0,0,0,0,0,0,0,0,0,0,0,0,0,0,0,0,0,0,0,0,0,0,0,0,0,0,0,0,0,0,0,0,0,0,0,0,
0,0,0,5560,5561,5560,5561,5560,5561,5560,5561,5560,5561,5560,5561,5560,5561,5560,5561,5560,5561,5560,5561,5560,5561,5560,5561,5560,5561,5560,5561,5560,5561,5560,5561,5560,5561,5560,5561,5560,5561,5560,5561,5560,5561,5560,5561,5560,5561,5560,5561,5560,5561,5560,5561,5560,5561,5560,5561,5560,5561,5560,5561,5560,5561,5560,5561,5560,5561,5560,5561,5560,5561,5560,0,0,0,0,0,0,0,0,0,0,0,0,0,0,0,0,0,0,0,0,0,0,0,0,0,0,
0,0,0,5382,5383,5382,5383,5382,5383,5382,5383,5382,5383,5382,5383,5382,5383,5382,5383,5382,5383,5382,5383,5382,5383,5382,5383,5382,5383,5382,5383,5382,5383,5382,5383,5382,5383,5382,5383,5382,5383,5382,5383,5382,5383,5382,5383,5382,5383,5382,5383,5382,5383,5382,5383,5382,5383,5382,5383,5382,5383,5382,5383,5382,5383,5382,5383,5382,5383,5382,5383,5382,5383,5382,0,0,0,0,0,0,0,0,0,0,0,0,0,0,0,0,0,0,0,0,0,0,0,0,0,0,
0,0,0,5471,5472,5471,5472,5471,5472,5471,5472,5471,5472,5471,5472,5471,5472,5471,5472,5471,5472,5471,5472,5471,5472,5471,5472,5471,5472,5471,5472,5471,5472,5471,5472,5471,5472,5471,5472,5471,5472,5471,5472,5471,5472,5471,5472,5471,5472,5471,5472,5471,5472,5471,5472,5471,5472,5471,5472,5471,5472,5471,5472,5471,5472,5471,5472,5471,5472,5471,5472,5471,5472,5471,0,0,0,0,0,0,0,0,0,0,0,0,0,0,0,0,0,0,0,0,0,0,0,0,0,0,
0,0,0,5560,5561,5560,5561,5560,5561,5560,5561,5560,5561,5560,5561,5560,5561,5560,5561,5560,5561,5560,5561,5560,5561,5560,5561,5560,5561,5560,5561,5560,5561,5560,5561,5560,5561,5560,5561,5560,5561,5560,5561,5560,5561,5560,5561,5560,5561,5560,5561,5560,5561,5560,5561,5560,5561,5560,5561,5560,5561,5560,5561,5560,5561,5560,5561,5560,5561,5560,5561,5560,5561,5560,0,0,0,0,0,0,0,0,0,0,0,0,0,0,0,0,0,0,0,0,0,0,0,0,0,0,
0,0,0,5382,5383,5382,5383,5382,5383,5382,5383,5382,5383,5382,5383,5382,5383,5382,5383,5382,5383,5382,5383,5382,5383,5382,5383,5382,5383,5382,5383,5382,5383,5382,5383,5382,5383,5382,5383,5382,5383,5382,5383,5382,5383,5382,5383,5382,5383,5382,5383,5382,5383,5382,5383,5382,5383,5382,5383,5382,5383,5382,5383,5382,5383,5382,5383,5382,5383,5382,5383,5382,5383,5382,0,0,0,0,0,0,0,0,0,0,0,0,0,0,0,0,0,0,0,0,0,0,0,0,0,0,
0,0,0,5471,5472,5471,5472,5471,5472,5471,5472,5471,5472,5471,5472,5471,5472,5471,5472,5471,5472,5471,5472,5471,5472,5471,5472,5471,5472,5471,5472,5471,5472,5471,5472,5471,5472,5471,5472,5471,5472,5471,5472,5471,5472,5471,5472,5471,5472,5471,5472,5471,5472,5471,5472,5471,5472,5471,5472,5471,5472,5471,5472,5471,5472,5471,5472,5471,5472,5471,5472,5471,5472,5471,0,0,0,0,0,0,0,0,0,0,0,0,0,0,0,0,0,0,0,0,0,0,0,0,0,0,
0,0,0,5560,5561,5560,5561,5560,5561,5560,5561,5560,5561,5560,5561,5560,5561,5560,5561,5560,5561,5560,5561,5560,5561,5560,5561,5560,5561,5560,5561,5560,5561,5560,5561,5560,5561,5560,5561,5560,5561,5560,5561,5560,5561,5560,5561,5560,5561,5560,5561,5560,5561,5560,5561,5560,5561,5560,5561,5560,5561,5560,5561,5560,5561,5560,5561,5560,5561,5560,5561,5560,5561,5560,0,0,0,0,0,0,0,0,0,0,0,0,0,0,0,0,0,0,0,0,0,0,0,0,0,0,
0,0,0,5382,5383,5382,5383,5382,5383,5382,5383,5382,5383,5382,5383,5382,5383,5382,5383,5382,5383,5382,5383,5382,5383,5382,5383,5382,5383,5382,5383,5382,5383,5382,5383,5382,5383,5382,5383,5382,5383,5382,5383,5382,5383,5382,5383,5382,5383,5382,5383,5382,5383,5382,5383,5382,5383,5382,5383,5382,5383,5382,5383,5382,5383,5382,5383,5382,5383,5382,5383,5382,5383,5382,0,0,0,0,0,0,0,0,0,0,0,0,0,0,0,0,0,0,0,0,0,0,0,0,0,0,
0,0,0,5471,5472,5471,5472,5471,5472,5471,5472,5471,5472,5471,5472,5471,5472,5471,5472,5471,5472,5471,5472,5471,5472,5471,5472,5471,5472,5471,5472,5471,5472,5471,5472,5471,5472,5471,5472,5471,5472,5471,5472,5471,5472,5471,5472,5471,5472,5471,5472,5471,5472,5471,5472,5471,5472,5471,5472,5471,5472,5471,5472,5471,5472,5471,5472,5471,5472,5471,5472,5471,5472,5471,0,0,0,0,0,0,0,0,0,0,0,0,0,0,0,0,0,0,0,0,0,0,0,0,0,0,
0,0,0,5560,5561,5560,5561,5560,5561,5560,5561,5560,5561,5560,5561,5560,5561,5560,5561,5560,5561,5560,5561,5560,5561,5560,5561,5560,5561,5560,5561,5560,5561,5560,5561,5560,5561,5560,5561,5560,5561,5560,5561,5560,5561,5560,5561,5560,5561,5560,5561,5560,5561,5560,5561,5560,5561,5560,5561,5560,5561,5560,5561,5560,5561,5560,5561,5560,5561,5560,5561,5560,5561,5560,0,0,0,0,0,0,0,0,0,0,0,0,0,0,0,0,0,0,0,0,0,0,0,0,0,0,
0,0,0,5382,5383,5382,5383,5382,5383,5382,5383,5382,5383,5382,5383,5382,5383,5382,5383,5382,5383,5382,5383,5382,5383,5382,5383,5382,5383,5382,5383,5382,5383,5382,5383,5382,5383,5382,5383,5382,5383,5382,5383,5382,5383,5382,5383,5382,5383,5382,5383,5382,5383,5382,5383,5382,5383,5382,5383,5382,5383,5382,5383,5382,5383,5382,5383,5382,5383,5382,5383,5382,5383,5382,0,0,0,0,0,0,0,0,0,0,0,0,0,0,0,0,0,0,0,0,0,0,0,0,0,0,
0,0,0,5471,5472,5471,5472,5471,5472,5471,5472,5471,5472,5471,5472,5471,5472,5471,5472,5471,5472,5471,5472,5471,5472,5471,5472,5471,5472,5471,5472,5471,5472,5471,5472,5471,5472,5471,5472,5471,5472,5471,5472,5471,5472,5471,5472,5471,5472,5471,5472,5471,5472,5471,5472,5471,5472,5471,5472,5471,5472,5471,5472,5471,5472,5471,5472,5471,5472,5471,5472,5471,5472,5471,0,0,0,0,0,0,0,0,0,0,0,0,0,0,0,0,0,0,0,0,0,0,0,0,0,0,
0,0,0,5560,5561,5560,5561,5560,5561,5560,5561,5560,5561,5560,5561,5560,5561,5560,5561,5560,5561,5560,5561,5560,5561,5560,5561,5560,5561,5560,5561,5560,5561,5560,5561,5560,5561,5560,5561,5560,5561,5560,5561,5560,5561,5560,5561,5560,5561,5560,5561,5560,5561,5560,5561,5560,5561,5560,5561,5560,5561,5560,5561,5560,5561,5560,5561,5560,5561,5560,5561,5560,5561,5560,0,0,0,0,0,0,0,0,0,0,0,0,0,0,0,0,0,0,0,0,0,0,0,0,0,0,
0,0,0,5382,5383,5382,5383,5382,5383,5382,5383,5382,5383,5382,5383,5382,5383,5382,5383,5382,5383,5382,5383,5382,5383,5382,5383,5382,5383,5382,5383,5382,5383,5382,5383,5382,5383,5382,5383,5382,5383,5382,5383,5382,5383,5382,5383,5382,5383,5382,5383,5382,5383,5382,5383,5382,5383,5382,5383,5382,5383,5382,5383,5382,5383,5382,5383,5382,5383,5382,5383,5382,5383,5382,0,0,0,0,0,0,0,0,0,0,0,0,0,0,0,0,0,0,0,0,0,0,0,0,0,0,
0,0,0,5471,5472,5471,5472,5471,5472,5471,5472,5471,5472,5471,5472,5471,5472,5471,5472,5471,5472,5471,5472,5471,5472,5471,5472,5471,5472,5471,5472,5471,5472,5471,5472,5471,5472,5471,5472,5471,5472,5471,5472,5471,5472,5471,5472,5471,5472,5471,5472,5471,5472,5471,5472,5471,5472,5471,5472,5471,5472,5471,5472,5471,5472,5471,5472,5471,5472,5471,5472,5471,5472,5471,0,0,0,0,0,0,0,0,0,0,0,0,0,0,0,0,0,0,0,0,0,0,0,0,0,0,
0,0,0,5560,5561,5560,5561,5560,5561,5560,5561,5560,5561,5560,5561,5560,5561,5560,5561,5560,5561,5560,5561,5560,5561,5560,5561,5560,5561,5560,5561,5560,5561,5560,5561,5560,5561,5560,5561,5560,5561,5560,5561,5560,5561,5560,5561,5560,5561,5560,5561,5560,5561,5560,5561,5560,5561,5560,5561,5560,5561,5560,5561,5560,5561,5560,5561,5560,5561,5560,5561,5560,5561,5560,0,0,0,0,0,0,0,0,0,0,0,0,0,0,0,0,0,0,0,0,0,0,0,0,0,0,
0,0,0,5382,5383,5382,5383,5382,5383,5382,5383,5382,5383,5382,5383,5382,5383,5382,5383,5382,5383,5382,5383,5382,5383,5382,5383,5382,5383,5382,5383,5382,5383,5382,5383,5382,5383,5382,5383,5382,5383,5382,5383,5382,5383,5382,5383,5382,5383,5382,5383,5382,5383,5382,5383,5382,5383,5382,5383,5382,5383,5382,5383,5382,5383,5382,5383,5382,5383,5382,5383,5382,5383,5382,0,0,0,0,0,0,0,0,0,0,0,0,0,0,0,0,0,0,0,0,0,0,0,0,0,0,
0,0,0,5471,5472,5471,5472,5471,5472,5471,5472,5471,5472,5471,5472,5471,5472,5471,5472,5471,5472,5471,5472,5471,5472,5471,5472,5471,5472,5471,5472,5471,5472,5471,5472,5471,5472,5471,5472,5471,5472,5471,5472,5471,5472,5471,5472,5471,5472,5471,5472,5471,5472,5471,5472,5471,5472,5471,5472,5471,5472,5471,5472,5471,5472,5471,5472,5471,5472,5471,5472,5471,5472,5471,0,0,0,0,0,0,0,0,0,0,0,0,0,0,0,0,0,0,0,0,0,0,0,0,0,0,
0,0,0,5560,5561,5560,5561,5560,5561,5560,5561,5560,5561,5560,5561,5560,5561,5560,5561,5560,5561,5560,5561,5560,5561,5560,5561,5560,5561,5560,5561,5560,5561,5560,5561,5560,5561,5560,5561,5560,5561,5560,5561,5560,5561,5560,5561,5560,5561,5560,5561,5560,5561,5560,5561,5560,5561,5560,5561,5560,5561,5560,5561,5560,5561,5560,5561,5560,5561,5560,5561,5560,5561,5560,0,0,0,0,0,0,0,0,0,0,0,0,0,0,0,0,0,0,0,0,0,0,0,0,0,0,
0,0,0,5382,5383,5382,5383,5382,5383,5382,5383,5382,5383,5382,5383,5382,5383,5382,5383,5382,5383,5382,5383,5382,5383,5382,5383,5382,5383,5382,5383,5382,5383,5382,5383,5382,5383,5382,5383,5382,5383,5382,5383,5382,5383,5382,5383,5382,5383,5382,5383,5382,5383,5382,5383,5382,5383,5382,5383,5382,5383,5382,5383,5382,5383,5382,5383,5382,5383,5382,5383,5382,5383,5382,0,0,0,0,0,0,0,0,0,0,0,0,0,0,0,0,0,0,0,0,0,0,0,0,0,0,
0,0,0,5471,5472,5471,5472,5471,5472,5471,5472,5471,5472,5471,5472,5471,5472,5471,5472,5471,5472,5471,5472,5471,5472,5471,5472,5471,5472,5471,5472,5471,5472,5471,5472,5471,5472,5471,5472,5471,5472,5471,5472,5471,5472,5471,5472,5471,5472,5471,5472,5471,5472,5471,5472,5471,5472,5471,5472,5471,5472,5471,5472,5471,5472,5471,5472,5471,5472,5471,5472,5471,5472,5471,0,0,0,0,0,0,0,0,0,0,0,0,0,0,0,0,0,0,0,0,0,0,0,0,0,0,
0,0,0,5560,5561,5560,5561,5560,5561,5560,5561,5560,5561,5560,5561,5560,5561,5560,5561,5560,5561,5560,5561,5560,5561,5560,5561,5560,5561,5560,5561,5560,5561,5560,5561,5560,5561,5560,5561,5560,5561,5560,5561,5560,5561,5560,5561,5560,5561,5560,5561,5560,5561,5560,5561,5560,5561,5560,5561,5560,5561,5560,5561,5560,5561,5560,5561,5560,5561,5560,5561,5560,5561,5560,0,0,0,0,0,0,0,0,0,0,0,0,0,0,0,0,0,0,0,0,0,0,0,0,0,0,
0,0,0,5382,5383,5382,5383,5382,5383,5382,5383,5382,5383,5382,5383,5382,5383,5382,5383,5382,5383,5382,5383,5382,5383,5382,5383,5382,5383,5382,5383,5382,5383,5382,5383,5382,5383,5382,5383,5382,5383,5382,5383,5382,5383,5382,5383,5382,5383,5382,5383,5382,5383,5382,5383,5382,5383,5382,5383,5382,5383,5382,5383,5382,5383,5382,5383,5382,5383,5382,5383,5382,5383,5382,0,0,0,0,0,0,0,0,0,0,0,0,0,0,0,0,0,0,0,0,0,0,0,0,0,0,
0,0,0,5471,5472,5471,5472,5471,5472,5471,5472,5471,5472,5471,5472,5471,5472,5471,5472,5471,5472,5471,5472,5471,5472,5471,5472,5471,5472,5471,5472,5471,5472,5471,5472,5471,5472,5471,5472,5471,5472,5471,5472,5471,5472,5471,5472,5471,5472,5471,5472,5471,5472,5471,5472,5471,5472,5471,5472,5471,5472,5471,5472,5471,5472,5471,5472,5471,5472,5471,5472,5471,5472,5471,0,0,0,0,0,0,0,0,0,0,0,0,0,0,0,0,0,0,0,0,0,0,0,0,0,0,
0,0,0,5560,5561,5560,5561,5560,5561,5560,5561,5560,5561,5560,5561,5560,5561,5560,5561,5560,5561,5560,5561,5560,5561,5560,5561,5560,5561,5560,5561,5560,5561,5560,5561,5560,5561,5560,5561,5560,5561,5560,5561,5560,5561,5560,5561,5560,5561,5560,5561,5560,5561,5560,5561,5560,5561,5560,5561,5560,5561,5560,5561,5560,5561,5560,5561,5560,5561,5560,5561,5560,5561,5560,0,0,0,0,0,0,0,0,0,0,0,0,0,0,0,0,0,0,0,0,0,0,0,0,0,0,
0,0,0,0,0,0,0,0,0,0,0,0,0,0,0,0,0,0,0,0,0,0,0,0,0,0,0,0,0,0,0,0,0,0,0,0,0,0,0,0,0,0,0,0,0,0,0,0,0,0,0,0,0,0,0,0,0,0,0,0,0,0,0,0,0,0,0,0,0,0,0,0,0,0,0,0,0,0,0,0,0,0,0,0,0,0,0,0,0,0,0,0,0,0,0,0,0,0,0,0,
0,0,0,0,0,0,0,0,0,0,0,0,0,0,0,0,0,0,0,0,0,0,0,0,0,0,0,0,0,0,0,0,0,0,0,0,0,0,0,0,0,0,0,0,0,0,0,0,0,0,0,0,0,0,0,0,0,0,0,0,0,0,0,0,0,0,0,0,0,0,0,0,0,0,0,0,0,0,0,0,0,0,0,0,0,0,0,0,0,0,0,0,0,0,0,0,0,0,0,0,
0,0,0,0,0,0,0,0,0,0,0,0,0,0,0,0,0,0,0,0,0,0,0,0,0,0,0,0,0,0,0,0,0,0,0,0,0,0,0,0,0,0,0,0,0,0,0,0,0,0,0,0,0,0,0,0,0,0,0,0,0,0,0,0,0,0,0,0,0,0,0,0,0,0,0,0,0,0,0,0,0,0,0,0,0,0,0,0,0,0,0,0,0,0,0,0,0,0,0,0,
0,0,0,0,0,0,0,0,0,0,0,0,0,0,0,0,0,0,0,0,0,0,0,0,0,0,0,0,0,0,0,0,0,0,0,0,0,0,0,0,0,0,0,0,0,0,0,0,0,0,0,0,0,0,0,0,0,0,0,0,0,0,0,0,0,0,0,0,0,0,0,0,0,0,0,0,0,0,0,0,0,0,0,0,0,0,0,0,0,0,0,0,0,0,0,0,0,0,0,0,
0,0,0,0,0,0,0,0,0,0,0,0,0,0,0,0,0,0,0,0,0,0,0,0,0,0,0,0,0,0,0,0,0,0,0,0,0,0,0,0,0,0,0,0,0,0,0,0,0,0,0,0,0,0,0,0,0,0,0,0,0,0,0,0,0,0,0,0,0,0,0,0,0,0,0,0,0,0,0,0,0,0,0,0,0,0,0,0,0,0,0,0,0,0,0,0,0,0,0,0,
0,0,0,0,0,0,0,0,0,0,0,0,0,0,0,0,0,0,0,0,0,0,0,0,0,0,0,0,0,0,0,0,0,0,0,0,0,0,0,0,0,0,0,0,0,0,0,0,0,0,0,0,0,0,0,0,0,0,0,0,0,0,0,0,0,0,0,0,0,0,0,0,0,0,0,0,0,0,0,0,0,0,0,0,0,0,0,0,0,0,0,0,0,0,0,0,0,0,0,0
</data>
 </layer>
</map>
